X:195
T:Hop Jig
R:slip jig
A:Kilkenny
B:
O:Irish
M:9/8
L:1/8
K:G
G>AG/F/ GBG AFD|G>AG/F/ GBd cAF|GAG/F/ GBG AFD|=FG/F/E FAd cAG:|
|:B/c/B/A/B cAG FED|GA/G/F GBd cAF|B/c/B/A/B cAG FED|=F/G/FE FAd cAG|
